X: 1
T:Since Jesus Came Into My Heart
C:Rufus H. McDaniel, 1914; Charles H. Gabriel, 1914
M:4/4
L:1/4
K:A
V:1 name="soprano" clef=treble middle=B
V:2 name="alto"    clef=treble middle=B
V:3 name="bass"   clef=bass middle=D,
V:4 name="bass"    clef=bass middle=D,
%
%%staffsep 90pt %between systems
%%sysstaffsep 90pt %between staves of a system
%%continueall 1
%%partsbox 1
[V:1]|C/2D/2
[V:2]|A,/2B,/2
[V:3]|E,/2E,/2
[V:4]|A,,/2A,,/2
[V:1]|E F/2G/2 A A/2B/2|c c/2d/2 c3/2 B/2|A/2 A F/2 A/2 A F/2|E3|
[V:2]|C D/2D/2 C C/2D/2|E E/2F/2 E3/2 E/2|F/2 F D/2 F/2 F D/2|C3|
[V:3]|A, A,/2A,/2 E, E,/2E,/2|A, A,/2A,/2 A,3/2 A,/2|D/2 D A,/2 D/2 D A,/2|A,3|
[V:4]|A,, A,,/2A,,/2 A,, A,,/2A,,/2|A,, A,,/2A,,/2 A,,3/2 C,/2|D,/2 D, D,/2 D,/2 D, F,/2|A,3|
[V:1]|C/2D/2
[V:2]|A,/2B,/2
[V:3]|E,/2E,/2
[V:4]|A,,/2A,,/2
[V:1]|E F/2G/2 A A/2B/2|c c/2d/2 c3/2 c/2|c/2 B B/2 ^d/2 d B/2|e2-+fermata+e|
[V:2]|C D/2D/2 C C/2D/2 E E/2F/2 E3/2 E/2|E/2 ^D D/2 A/2 A A/2|(G A +fermata+B)|
[V:3]|A, A,/2A,/2 E, E,/2E,/2|A, A,/2A,/2 A,3/2 A,/2|A,/2 A, A,/2 B,/2 B, B,/2|(B, C +fermata+D)|
[V:4]|A,, A,,/2A,,/2 A,, A,,/2A,,/2|A,, A,,/2A,,/2 A,,3/2 A,,/2|A,,/2 B,, B,,/2 B,,/2 B,, ^D,/2|E,2- +fermata+E,|
 
